ui/StatusQ/src/assets/img/icons/cancel.svg

<svg fill="none" height="24" viewBox="0 0 24 24" width="24" xmlns="http://www.w3.org/2000/svg"><path clip-rule="evenodd" d="m12 22c-5.52285 0-10-4.4772-10-10 0-5.52285 4.47715-10 10-10 5.5228 0 10 4.47715 10 10 0 5.5228-4.4772 10-10 10zm-6.13139-4.9293c-.2075.2075-.5494.1932-.72315-.0433-1.03442-1.408-1.64546-3.1463-1.64546-5.0274 0-4.69442 3.80558-8.5 8.5-8.5 1.8811 0 3.6194.61104 5.0274 1.64546.2365.17375.2508.51565.0433.72316zm1.06067 1.0607c-.20751.2075-.19319.5494.0433.7231 1.40798 1.0345 3.14632 1.6455 5.02742 1.6455 4.6944 0 8.5-3.8056 8.5-8.5 0-1.8811-.611-3.61944-1.6455-5.02742-.1737-.23649-.5156-.25081-.7231-.0433z" fill="#000" fill-rule="evenodd"/></svg>

<svg width="24" height="24" viewBox="0 0 24 24" fill="none" xmlns="http://www.w3.org/2000/svg">
<path fill-rule="evenodd" clip-rule="evenodd" d="M12 22C6.47715 22 2 17.5228 2 12C2 6.47715 6.47715 2 12 2C17.5228 2 22 6.47715 22 12C22 17.5228 17.5228 22 12 22ZM5.86861 17.0707C5.66111 17.2782 5.31921 17.2639 5.14546 17.0274C4.11104 15.6194 3.5 13.8811 3.5 12C3.5 7.30558 7.30558 3.5 12 3.5C13.8811 3.5 15.6194 4.11104 17.0274 5.14546C17.2639 5.31921 17.2782 5.66111 17.0707 5.86862L5.86861 17.0707ZM6.92928 18.1314C6.72177 18.3389 6.73609 18.6808 6.97258 18.8545C8.38056 19.889 10.1189 20.5 12 20.5C16.6944 20.5 20.5 16.6944 20.5 12C20.5 10.1189 19.889 8.38056 18.8545 6.97258C18.6808 6.73609 18.3389 6.72177 18.1314 6.92928L6.92928 18.1314Z" fill="black"/>
</svg>
